X: 856
T: Murphy's Hornpipe   #2
R: hornpipe
%S: s:2 b:9(5+4)
B: Francis O'Neill: "The Dance Music of Ireland" (1907) #856
Z: Frank Nordberg - http://www.musicaviva.com
F: http://www.musicaviva.com/abc/tunes/ireland/oneill-1001/0856/oneill-1001-0856-1.abc
M: C|
L: 1/8
K: G
(3DEF "^A"|: GABG EFGE | ABcA FGAF | GBdg ecA [1,3 G | FGAF DEFD :|[2,4 F | G2GG "^fine"G2 :| 
"^B"|: (Bc) | dedc BcdB | (3efg ed cdef | gfgd ecAG | FGAF DEF"^->A2"D |]
